Newaita/actions/24/format-border-set-top.svg

<svg height="24" viewBox="0 0 24 24" width="24" xmlns="http://www.w3.org/2000/svg"><g fill="#424242"><path d="m3.96875 22.019531h15.875c1.097656 0 1.988281-.890625 1.988281-1.988281v-15.875c0-1.09375-.890625-1.984375-1.988281-1.984375h-15.875c-1.09375 0-1.984375.890625-1.984375 1.984375v15.875c0 1.097656.890625 1.988281 1.984375 1.988281zm0 0" fill-opacity=".392157"/><path d="m1.984375 12.589844h19.847656v-.992188h-19.847656zm0 0"/><path d="m12.457031 22.019531v-19.847656h-1.046875v19.847656zm0 0"/></g><path d="m1.984375 4.15625c0-1.097656.886719-1.984375 1.984375-1.984375h15.875c1.101562 0 1.988281.886719 1.988281 1.984375zm0 0" fill="#7e57c2"/></svg>

<svg xmlns="http://www.w3.org/2000/svg" xmlns:xlink="http://www.w3.org/1999/xlink" width="24px" height="24px" viewBox="0 0 24 24" version="1.1">
<g id="surface1">
<path style=" stroke:none;fill-rule:nonzero;fill:rgb(25.882354%,25.882354%,25.882354%);fill-opacity:0.392157;" d="M 3.96875 22.019531 L 19.84375 22.019531 C 20.941406 22.019531 21.832031 21.128906 21.832031 20.03125 L 21.832031 4.15625 C 21.832031 3.0625 20.941406 2.171875 19.84375 2.171875 L 3.96875 2.171875 C 2.875 2.171875 1.984375 3.0625 1.984375 4.15625 L 1.984375 20.03125 C 1.984375 21.128906 2.875 22.019531 3.96875 22.019531 Z M 3.96875 22.019531 "/>
     <defs>
  <style id="current-color-scheme" type="text/css">
   .ColorScheme-Text { color:#424242; } .ColorScheme-Highlight { color:#eeeeee; }
  </style>
 </defs>
<path style="fill:currentColor" class="ColorScheme-Text" d="M 1.984375 12.589844 L 21.832031 12.589844 L 21.832031 11.597656 L 1.984375 11.597656 Z M 1.984375 12.589844 "/>
     <defs>
  <style id="current-color-scheme" type="text/css">
   .ColorScheme-Text { color:#424242; } .ColorScheme-Highlight { color:#eeeeee; }
  </style>
 </defs>
<path style="fill:currentColor" class="ColorScheme-Text" d="M 12.457031 22.019531 L 12.457031 2.171875 L 11.410156 2.171875 L 11.410156 22.019531 Z M 12.457031 22.019531 "/>
<path style=" stroke:none;fill-rule:nonzero;fill:rgb(49.411765%,34.117648%,76.078433%);fill-opacity:1;" d="M 1.984375 4.15625 C 1.984375 3.058594 2.871094 2.171875 3.96875 2.171875 L 19.84375 2.171875 C 20.945312 2.171875 21.832031 3.058594 21.832031 4.15625 Z M 1.984375 4.15625 "/>
</g>
</svg>
